**harm	**harte	**silbe	**silbe	**silbe	**silbe	**silbe	**rhyme	**timestamp	**phrase	**leadinstrument	**kern
*M4/4	*M4/4	*	*	*	*	*	*	*	*	*	*
*	*	*	*	*	*	*	*	*	*	*	*
*	*	*	*	*	*	*	*	*	*	*	*
*g:	*g:	*	*	*	*	*	*	*g:	*g:	*g:	*g:
*	*	*	*	*	*	*	*	*	*	*	*
*	*	*	*	*	*	*	*	*	*	*	*
1r;	N	.	.	.	.	.	.	.	.	r	1r;
=1	=1	=1	=1	=1	=1	=1	=1	=1	=1	=1	=1
*>Letter>A	*>Letter>A	*>Letter>A	*>Letter>A	*>Letter>A	*>Letter>A	*>Letter>A	*>Letter>A	*>Letter>A	*>Letter>A	*>Letter>A	*>Letter>A
*>Label>Intro	*>Label>Intro	*>Label>Intro	*>Label>Intro	*>Label>Intro	*>Label>Intro	*>Label>Intro	*>Label>Intro	*>Label>Intro	*>Label>Intro	*>Label>Intro	*>Label>Intro
1i7	G:min7	Oh!	.	.	.	.	.	3.745	newline	voice	1G 1b- 1dd 1ff#
.	.	_	.	.	.	.	.	.	.	.	.
.	.	_	.	.	.	.	.	.	.	.	.
=2	=2	=2	=2	=2	=2	=2	=2	=2	=2	=2	=2
1i7	G:min7	.	.	.	.	.	.	.	.	voice	1G 1b- 1dd 1ff#
.	.	.	.	.	.	.	.	.	.	.	.
.	.	Mm	.	.	.	.	.	.	.	.	.
.	.	_	.	.	.	.	.	.	.	.	.
.	.	_	.	.	.	.	.	.	.	.	.
=3	=3	=3	=3	=3	=3	=3	=3	=3	=3	=3	=3
1-VIIe	F:maj/2	ah!	.	.	.	.	.	.	.	voice	1F 1a 1cc
.	.	_	.	.	.	.	.	.	.	.	.
.	.	_	.	.	.	.	.	.	.	.	.
=4	=4	=4	=4	=4	=4	=4	=4	=4	=4	=4	=4
1IVc	C:maj/5	_	.	.	.	.	.	.	.	voice	1c 1e 1G
.	.	_	.	.	.	.	.	.	.	.	.
.	.	_	.	.	.	.	.	.	.	.	.
.	.	.	.	.	.	.	.	.	.	.	.
.	.	Ooh	.	.	.	.	.	.	.	.	.
.	.	_	.	.	.	.	.	.	.	.	.
.	.	oh!	.	.	.	.	.	.	.	.	.
=5	=5	=5	=5	=5	=5	=5	=5	=5	=5	=5	=5
1i7	G:min7	_	.	.	.	.	.	22.47	newline	voice	1G 1b- 1dd 1ff#
.	.	_	.	.	.	.	.	.	.	.	.
.	.	_	.	.	.	.	.	.	.	.	.
=6	=6	=6	=6	=6	=6	=6	=6	=6	=6	=6	=6
1i7	G:min7	.	.	.	.	.	.	.	.	voice	1G 1b- 1dd 1ff#
.	.	Ah,	.	.	.	.	.	.	.	.	.
.	.	_	.	.	.	.	.	.	.	.	.
.	.	_	.	.	.	.	.	.	.	.	.
.	.	_	.	.	.	.	.	.	.	.	.
.	.	_	.	.	.	.	.	.	.	.	.
.	.	_	.	.	.	.	.	.	.	.	.
=7	=7	=7	=7	=7	=7	=7	=7	=7	=7	=7	=7
1-VIIe	F:maj/2	_	.	.	.	.	.	.	.	voice	1F 1a 1cc
.	.	_	.	.	.	.	.	.	.	.	.
.	.	_	.	.	.	.	.	.	.	.	.
.	.	_	.	.	.	.	.	.	.	.	.
.	.	oh!	.	.	.	.	.	.	.	.	.
=8	=8	=8	=8	=8	=8	=8	=8	=8	=8	=8	=8
1IVc	C:maj/5	_	.	.	.	.	.	.	.	voice	1c 1e 1G
.	.	_	.	.	.	.	.	.	.	.	.
.	.	_	.	.	.	.	.	.	.	.	.
.	.	.	.	.	.	.	.	.	.	.	.
.	.	.	.	.	.	.	.	.	.	.	.
=9	=9	=9	=9	=9	=9	=9	=9	=9	=9	=9	=9
*>Letter>B	*>Letter>B	*>Letter>B	*>Letter>B	*>Letter>B	*>Letter>B	*>Letter>B	*>Letter>B	*>Letter>B	*>Letter>B	*>Letter>B	*>Letter>B
*>Label>Verse	*>Label>Verse	*>Label>Verse	*>Label>Verse	*>Label>Verse	*>Label>Verse	*>Label>Verse	*>Label>Verse	*>Label>Verse	*>Label>Verse	*>Label>Verse	*>Label>Verse
*G:	*G:	*	*	*	*	*	*	*G:	*G:	*G:	*G:
1I	G:maj	Is	.	.	.	.	.	37.47	newline	voice	1G 1b 1dd
.	.	this	.	.	.	.	.	.	.	.	.
.	.	_	.	.	.	.	.	.	.	.	.
.	.	the	.	.	.	.	.	.	.	.	.
.	.	age	.	.	.	.	A	.	.	.	.
.	.	of	.	.	.	.	.	.	.	.	.
.	.	the	.	.	.	.	.	.	.	.	.
.	.	thun-	.	.	.	.	.	.	.	.	.
=10	=10	=10	=10	=10	=10	=10	=10	=10	=10	=10	=10
1Im7d	G:7/b7	_	.	.	.	.	.	.	.	voice	1g 1b 1dd 1F#
.	.	-der	.	.	.	.	.	.	.	.	.
.	.	and	.	.	.	.	.	.	.	.	.
.	.	rage,	.	.	.	.	A	.	.	.	.
.	.	_	.	.	.	.	.	.	.	.	.
.	.	can	.	.	.	.	.	.	.	.	.
.	.	you	.	.	.	.	.	.	.	.	.
.	.	feel	.	.	.	.	.	.	.	.	.
=11	=11	=11	=11	=11	=11	=11	=11	=11	=11	=11	=11
1IVb	C:maj/3	_	.	.	.	.	.	.	.	voice	1c 1E 1g
.	.	the	.	.	.	.	.	.	.	.	.
.	.	ground	.	.	.	.	B	.	.	.	.
.	.	move	.	.	.	.	.	.	.	.	.
.	.	_	.	.	.	.	.	.	.	.	.
.	.	'round	.	.	.	.	B	.	.	.	.
.	.	your	.	.	.	.	.	.	.	.	.
.	.	feet?	.	.	.	.	C	.	.	.	.
=12	=12	=12	=12	=12	=12	=12	=12	=12	=12	=12	=12
1-VII	F:maj	_	.	.	.	.	.	.	.	voice	1F 1a 1cc
.	.	_	.	.	.	.	.	.	.	.	.
.	.	_	.	.	.	.	.	.	.	.	.
.	.	_	.	.	.	.	.	.	.	.	.
.	.	_	.	.	.	.	.	.	.	.	.
.	.	_	.	.	.	.	.	.	.	.	.
.	.	.	.	.	.	.	.	.	.	.	.
.	.	.	.	.	.	.	.	.	.	.	.
.	.	If	.	.	.	.	.	.	.	.	.
.	.	you	.	.	.	.	.	.	.	.	.
.	.	take	.	.	.	.	.	.	.	.	.
=13	=13	=13	=13	=13	=13	=13	=13	=13	=13	=13	=13
1I	G:maj	_	.	.	.	.	.	44.925	newline	voice	1G 1b 1dd
.	.	one	.	.	.	.	.	.	.	.	.
.	.	step	.	.	.	.	.	.	.	.	.
.	.	clo-	.	.	.	.	(D	.	.	.	.
.	.	_	.	.	.	.	.	.	.	.	.
.	.	-ser	.	.	.	.	d)	.	.	.	.
.	.	it-	.	.	.	.	.	.	.	.	.
.	.	-'ll	.	.	.	.	.	.	.	.	.
=14	=14	=14	=14	=14	=14	=14	=14	=14	=14	=14	=14
1Im7d	G:7/b7	lead	.	.	.	.	.	.	.	voice	1g 1b 1dd 1F#
.	.	to	.	.	.	.	.	.	.	.	.
.	.	a	.	.	.	.	.	.	.	.	.
.	.	no-	.	.	.	.	(D	.	.	.	.
.	.	_	.	.	.	.	.	.	.	.	.
.	.	-ther,	.	.	.	.	d)	.	.	.	.
.	.	.	.	.	.	.	.	.	.	.	.
.	.	the	.	.	.	.	.	.	.	.	.
=15	=15	=15	=15	=15	=15	=15	=15	=15	=15	=15	=15
1IVb	C:maj/3	cross-	.	.	.	.	.	.	.	voice	1c 1E 1g
.	.	-road	.	.	.	.	.	.	.	.	.
.	.	a-	.	.	.	.	.	.	.	.	.
.	.	-bove	.	.	.	.	.	.	.	.	.
.	.	_	.	.	.	.	.	.	.	.	.
.	.	is	.	.	.	.	.	.	.	.	.
.	.	where	.	.	.	.	.	.	.	.	.
.	.	we	.	.	.	.	.	.	.	.	.
=16	=16	=16	=16	=16	=16	=16	=16	=16	=16	=16	=16
1-VII	F:maj	_	.	.	.	.	.	.	.	voice	1F 1a 1cc
.	.	_	.	.	.	.	.	.	.	.	.
.	.	meet.	.	.	.	.	C	.	.	.	.
.	.	.	.	.	.	.	.	.	.	.	.
.	.	.	.	.	.	.	.	.	.	.	.
.	.	I	.	.	.	.	.	.	.	.	.
.	.	_	.	.	.	.	.	.	.	.	.
.	.	shout	.	.	.	.	B	.	.	.	.
=17	=17	=17	=17	=17	=17	=17	=17	=17	=17	=17	=17
1I	G:maj	_	.	.	.	.	.	52.45	newline	voice	1G 1b 1dd
.	.	out	.	.	.	.	.	.	.	.	.
.	.	_	.	.	.	.	.	.	.	.	.
.	.	for	.	.	.	.	.	.	.	.	.
.	.	shel-	.	.	.	.	.	.	.	.	.
.	.	-ter,	.	.	.	.	.	.	.	.	.
.	.	I	.	.	.	.	.	.	.	.	.
.	.	need	.	.	.	.	.	.	.	.	.
=18	=18	=18	=18	=18	=18	=18	=18	=18	=18	=18	=18
1Im7d	G:7/b7	_	.	.	.	.	.	.	.	voice	1g 1b 1dd 1F#
.	.	you	.	.	.	.	.	.	.	.	.
.	.	for	.	.	.	.	.	.	.	.	.
.	.	some-	.	.	.	.	.	.	.	.	.
.	.	_	.	.	.	.	.	.	.	.	.
.	.	-thing,,	.	.	.	.	C	.	.	.	.
.	.	_	.	.	.	.	.	.	.	.	.
.	.	the	.	.	.	.	.	.	.	.	.
=19	=19	=19	=19	=19	=19	=19	=19	=19	=19	=19	=19
1IVb	C:maj/3	whole	.	.	.	.	.	.	.	voice	1c 1E 1g
.	.	world's	.	.	.	.	.	.	.	.	.
.	.	_	.	.	.	.	.	.	.	.	.
.	.	out,	.	.	.	.	.	.	.	.	.
.	.	_	.	.	.	.	.	.	.	.	.
.	.	they're	.	.	.	.	.	.	.	.	.
=20	=20	=20	=20	=20	=20	=20	=20	=20	=20	=20	=20
1-VII	F:maj	all	.	.	.	.	.	.	.	voice	1F 1a 1cc
.	.	on	.	.	.	.	.	.	.	.	.
.	.	the	.	.	.	.	.	.	.	.	.
.	.	street	.	.	.	.	C	.	.	.	.
.	.	_	.	.	.	.	.	.	.	.	.
.	.	.	.	.	.	.	.	.	.	.	.
.	.	Con-	.	.	.	.	.	.	.	.	.
=21	=21	=21	=21	=21	=21	=21	=21	=21	=21	=21	=21
*>Letter>C	*>Letter>C	*>Letter>C	*>Letter>C	*>Letter>C	*>Letter>C	*>Letter>C	*>Letter>C	*>Letter>C	*>Letter>C	*>Letter>C	*>Letter>C
*>Label>Prechorus	*>Label>Prechorus	*>Label>Prechorus	*>Label>Prechorus	*>Label>Prechorus	*>Label>Prechorus	*>Label>Prechorus	*>Label>Prechorus	*>Label>Prechorus	*>Label>Prechorus	*>Label>Prechorus	*>Label>Prechorus
1-VI	E-:maj	-trol	.	.	.	.	.	59.965	newline	voice	1E- 1g 1b-
.	.	your-	.	.	.	.	.	.	.	.	.
.	.	-self,	.	.	.	.	.	.	.	.	.
.	.	_	.	.	.	.	.	.	.	.	.
=22	=22	=22	=22	=22	=22	=22	=22	=22	=22	=22	=22
1-VI	E-:maj	_	.	.	.	.	.	.	.	voice	1E- 1g 1b-
.	.	.	.	.	.	.	.	.	.	.	.
.	.	.	.	.	.	.	.	.	.	.	.
=23	=23	=23	=23	=23	=23	=23	=23	=23	=23	=23	=23
1-VII	F:maj	love	.	.	.	.	.	.	.	voice	1F 1a 1cc
.	.	is	.	.	.	.	.	.	.	.	.
.	.	_	.	.	.	.	.	.	.	.	.
.	.	all	.	.	.	.	.	.	.	.	.
.	.	_	.	.	.	.	.	.	.	.	.
.	.	you	.	.	.	.	.	.	.	.	.
.	.	_	.	.	.	.	.	.	.	.	.
.	.	need	.	.	.	.	C	.	.	.	.
.	.	_	.	.	.	.	.	.	.	.	.
=24	=24	=24	=24	=24	=24	=24	=24	=24	=24	=24	=24
1-VII	F:maj	_	.	.	.	.	.	.	.	voice	1F 1a 1cc
.	.	_	.	.	.	.	.	.	.	.	.
.	.	.	.	.	.	.	.	.	.	.	.
.	.	.	.	.	.	.	.	.	.	.	.
.	.	Con-	.	.	.	.	.	.	.	.	.
=25	=25	=25	=25	=25	=25	=25	=25	=25	=25	=25	=25
1-VI	E-:maj	-trol	.	.	.	.	.	67.365	newline	voice	1E- 1g 1b-
.	.	your-	.	.	.	.	.	.	.	.	.
.	.	_	.	.	.	.	.	.	.	.	.
.	.	-self,	.	.	.	.	.	.	.	.	.
.	.	_	.	.	.	.	.	.	.	.	.
=26	=26	=26	=26	=26	=26	=26	=26	=26	=26	=26	=26
1-VI	E-:maj	_	.	.	.	.	.	.	.	voice	1E- 1g 1b-
.	.	.	.	.	.	.	.	.	.	.	.
.	.	in	.	.	.	.	.	.	.	.	.
.	.	_	.	.	.	.	.	.	.	.	.
.	.	your	.	.	.	.	.	.	.	.	.
.	.	_	.	.	.	.	.	.	.	.	.
.	.	eyes!	.	.	.	.	.	.	.	.	.
=27	=27	=27	=27	=27	=27	=27	=27	=27	=27	=27	=27
*>Letter>D	*>Letter>D	*>Letter>D	*>Letter>D	*>Letter>D	*>Letter>D	*>Letter>D	*>Letter>D	*>Letter>D	*>Letter>D	*>Letter>D	*>Letter>D
*>Label>Chorus	*>Label>Chorus	*>Label>Chorus	*>Label>Chorus	*>Label>Chorus	*>Label>Chorus	*>Label>Chorus	*>Label>Chorus	*>Label>Chorus	*>Label>Chorus	*>Label>Chorus	*>Label>Chorus
1I	G:maj	_	.	.	.	.	.	71.18	newline	voice	1G 1b 1dd
.	.	.	.	.	.	.	.	.	.	.	.
.	.	.	.	.	.	.	.	.	.	.	.
.	.	.	.	.	.	.	.	.	.	.	.
.	.	Sanc-	.	.	.	.	.	.	.	.	.
.	.	-ti-	.	.	.	.	.	.	.	.	.
.	.	-fy	.	.	.	.	.	.	.	.	.
=28	=28	=28	=28	=28	=28	=28	=28	=28	=28	=28	=28
1IVc	C:maj/5	your-	.	.	.	.	.	.	.	voice	1c 1e 1G
.	.	-self,	.	.	.	.	.	.	.	.	.
.	.	.	.	.	.	.	.	.	.	.	.
.	.	.	.	.	.	.	.	.	.	.	.
.	.	sanc-	.	.	.	.	.	.	.	.	.
.	.	_	.	.	.	.	.	.	.	.	.
.	.	-ti-	.	.	.	.	.	.	.	.	.
=29	=29	=29	=29	=29	=29	=29	=29	=29	=29	=29	=29
1I	G:maj	-fy!	.	.	.	.	.	.	.	voice	1G 1b 1dd
.	.	.	Sanc-	.	.	.	.	.	.	.	.
.	.	.	-ti-	.	.	.	.	.	.	.	.
.	.	.	-fy!	.	.	.	.	.	.	.	.
.	.	.	_	.	.	.	.	.	.	.	.
.	.	Be	.	.	.	.	.	.	.	.	.
.	.	a	.	.	.	.	.	.	.	.	.
.	.	part	.	.	.	.	.	.	.	.	.
=30	=30	=30	=30	=30	=30	=30	=30	=30	=30	=30	=30
1IVc	C:maj/5	of	_	.	.	.	.	.	.	voice	1c 1e 1G
.	.	me,	.	.	.	.	.	.	.	.	.
.	.	.	.	.	.	.	.	.	.	.	.
.	.	.	.	.	.	.	.	.	.	.	.
.	.	sanc-	.	.	.	.	.	.	.	.	.
.	.	_	.	.	.	.	.	.	.	.	.
.	.	-ti-	.	.	.	.	.	.	.	.	.
=31	=31	=31	=31	=31	=31	=31	=31	=31	=31	=31	=31
1I	G:maj	-fy!	.	.	.	.	.	78.685	newline	voice	1G 1b 1dd
.	.	.	Sanc-	.	.	.	.	.	.	.	.
.	.	.	-ti-	.	.	.	.	.	.	.	.
.	.	.	-fy!	.	.	.	.	.	.	.	.
.	.	.	_	.	.	.	.	.	.	.	.
.	.	Sanc-	.	.	.	.	.	.	.	.	.
.	.	-ti-	.	.	.	.	.	.	.	.	.
.	.	-fy	.	.	.	.	.	.	.	.	.
=32	=32	=32	=32	=32	=32	=32	=32	=32	=32	=32	=32
1IVc	C:maj/5	your-	_	.	.	.	.	.	.	voice	1c 1e 1G
.	.	-se;f,	.	.	.	.	.	.	.	.	.
.	.	.	.	.	.	.	.	.	.	.	.
.	.	.	.	.	.	.	.	.	.	.	.
.	.	sanc-	.	.	.	.	.	.	.	.	.
.	.	_	.	.	.	.	.	.	.	.	.
.	.	-ti-	.	.	.	.	.	.	.	.	.
=33	=33	=33	=33	=33	=33	=33	=33	=33	=33	=33	=33
1I	G:maj	-fy!	.	.	.	.	.	.	.	voice	1G 1b 1dd
.	.	.	Sanc-	.	.	.	.	.	.	.	.
.	.	.	-ti-	.	.	.	.	.	.	.	.
.	.	.	-fy!	.	.	.	.	.	.	.	.
.	.	.	_	.	.	.	.	.	.	.	.
.	.	Sanc-	.	.	.	.	.	.	.	.	.
.	.	-ti-	.	.	.	.	.	.	.	.	.
.	.	-fy	.	.	.	.	.	.	.	.	.
=34	=34	=34	=34	=34	=34	=34	=34	=34	=34	=34	=34
1IVc	C:maj/5	your-	_	.	.	.	.	.	.	voice	1c 1e 1G
.	.	-self,.	.	.	.	.	.	.	.	.	.
.	.	.	.	.	.	.	.	.	.	.	.
.	.	set	.	.	.	.	.	.	.	.	.
.	.	.	.	.	.	.	.	.	.	.	.
.	.	your-	.	.	.	.	.	.	.	.	.
.	.	-self	.	.	.	.	.	.	.	.	.
.	.	_	.	.	.	.	.	.	.	.	.
=35	=35	=35	=35	=35	=35	=35	=35	=35	=35	=35	=35
*>Letter>A	*>Letter>A	*>Letter>A	*>Letter>A	*>Letter>A	*>Letter>A	*>Letter>A	*>Letter>A	*>Letter>A	*>Letter>A	*>Letter>A	*>Letter>A
*>Label>Interlude	*>Label>Interlude	*>Label>Interlude	*>Label>Interlude	*>Label>Interlude	*>Label>Interlude	*>Label>Interlude	*>Label>Interlude	*>Label>Interlude	*>Label>Interlude	*>Label>Interlude	*>Label>Interlude
*g:	*g:	*	*	*	*	*	*	*g:	*g:	*g:	*g:
1i7	G:min7	.	.	.	.	.	.	86.16	newline	synthesizer	1G 1b- 1dd 1ff#
.	.	.	.	.	.	.	.	.	.	.	.
.	.	free	.	.	.	.	C	.	.	.	.
.	.	_	.	.	.	.	.	.	.	.	.
.	.	_	.	.	.	.	.	.	.	.	.
=36	=36	=36	=36	=36	=36	=36	=36	=36	=36	=36	=36
1i7	G:min7	_	.	.	.	.	.	.	.	synthesizer	1G 1b- 1dd 1ff#
.	.	.	.	.	.	.	.	.	.	.	.
.	.	.	.	.	.	.	.	.	.	.	.
=37	=37	=37	=37	=37	=37	=37	=37	=37	=37	=37	=37
1-VIIe	F:maj/2	.	.	.	.	.	.	.	.	synthesizer	1F 1a 1cc
=38	=38	=38	=38	=38	=38	=38	=38	=38	=38	=38	=38
1IVc	C:maj/5	.	.	.	.	.	.	.	.	synthesizer	1c 1e 1G
=39	=39	=39	=39	=39	=39	=39	=39	=39	=39	=39	=39
1i7	G:min7	.	.	.	.	.	.	93.665	newline	synthesizer	1G 1b- 1dd 1ff#
=40	=40	=40	=40	=40	=40	=40	=40	=40	=40	=40	=40
1i7	G:min7	.	.	.	.	.	.	.	.	synthesizer	1G 1b- 1dd 1ff#
=41	=41	=41	=41	=41	=41	=41	=41	=41	=41	=41	=41
1-VIIe	F:maj/2	.	.	.	.	.	.	.	.	synthesizer	1F 1a 1cc
=42	=42	=42	=42	=42	=42	=42	=42	=42	=42	=42	=42
1IVc	C:maj/5	.	.	.	.	.	.	.	.	synthesizer	1c 1e 1G
.	.	.	.	.	.	.	.	.	.	.	.
.	.	.	.	.	.	.	.	.	.	.	.
.	.	In	.	.	.	.	.	.	.	.	.
=43	=43	=43	=43	=43	=43	=43	=43	=43	=43	=43	=43
*>Letter>B	*>Letter>B	*>Letter>B	*>Letter>B	*>Letter>B	*>Letter>B	*>Letter>B	*>Letter>B	*>Letter>B	*>Letter>B	*>Letter>B	*>Letter>B
*>Label>Verse	*>Label>Verse	*>Label>Verse	*>Label>Verse	*>Label>Verse	*>Label>Verse	*>Label>Verse	*>Label>Verse	*>Label>Verse	*>Label>Verse	*>Label>Verse	*>Label>Verse
*G:	*G:	*	*	*	*	*	*	*G:	*G:	*G:	*G:
1I	G:maj	pic-	.	.	.	.	.	116.155	newline	voice	1G 1b 1dd
.	.	-tures	.	.	.	.	.	.	.	.	.
.	.	_	.	.	.	.	.	.	.	.	.
.	.	of	.	.	.	.	.	.	.	.	.
.	.	li-	.	.	.	.	(D	.	.	.	.
.	.	-ving,	.	.	.	.	d)	.	.	.	.
.	.	in	.	.	.	.	.	.	.	.	.
.	.	blood-	.	.	.	.	.	.	.	.	.
=44	=44	=44	=44	=44	=44	=44	=44	=44	=44	=44	=44
1Im7d	G:7/b7	_	.	.	.	.	.	.	.	voice	1g 1b 1dd 1F#
.	.	-shot	.	.	.	.	.	.	.	.	.
.	.	a	.	.	.	.	.	.	.	.	.
.	.	vi-	.	.	.	.	(D	.	.	.	.
.	.	-sion,	.	.	.	.	d)	.	.	.	.
.	.	.	.	.	.	.	.	.	.	.	.
.	.	sweet	.	.	.	.	.	.	.	.	.
=45	=45	=45	=45	=45	=45	=45	=45	=45	=45	=45	=45
1IVb	C:maj/3	mi-	.	.	.	.	.	.	.	voice	1c 1E 1g
.	.	-ra-	.	.	.	.	.	.	.	.	.
.	.	-cles	.	.	.	.	.	.	.	.	.
.	.	_	.	.	.	.	.	.	.	.	.
.	.	and	.	.	.	.	.	.	.	.	.
.	.	strange	.	.	.	.	.	.	.	.	.
.	.	cir-	.	.	.	.	.	.	.	.	.
.	.	-cum-	.	.	.	.	.	.	.	.	.
.	.	-stan-	.	.	.	.	(E	.	.	.	.
=46	=46	=46	=46	=46	=46	=46	=46	=46	=46	=46	=46
1-VII	F:maj	_	.	.	.	.	.	.	.	voice	1F 1a 1cc
.	.	-ces	.	.	.	.	e)	.	.	.	.
.	.	_	.	.	.	.	.	.	.	.	.
.	.	.	.	.	.	.	.	.	.	.	.
.	.	I	.	.	.	.	.	.	.	.	.
.	.	see	.	.	.	.	.	.	.	.	.
.	.	the	.	.	.	.	.	.	.	.	.
=47	=47	=47	=47	=47	=47	=47	=47	=47	=47	=47	=47
1I	G:maj	sun	.	.	.	.	.	123.66	newline	voice	1G 1b 1dd
.	.	up,	.	.	.	.	.	.	.	.	.
.	.	_	.	.	.	.	.	.	.	.	.
.	.	the	.	.	.	.	.	.	.	.	.
.	.	show-	.	.	.	.	(F	.	.	.	.
.	.	-down,	.	.	.	.	B)	.	.	.	.
.	.	the	.	.	.	.	.	.	.	.	.
.	.	cool	.	.	.	.	.	.	.	.	.
=48	=48	=48	=48	=48	=48	=48	=48	=48	=48	=48	=48
1Im7d	G:7/b7	_	.	.	.	.	.	.	.	voice	1g 1b 1dd 1F#
.	.	winds	.	.	.	.	.	.	.	.	.
.	.	that	.	.	.	.	.	.	.	.	.
.	.	blow	.	.	.	.	F	.	.	.	.
.	.	_	.	.	.	.	.	.	.	.	.
.	.	down,	.	.	.	.	B	.	.	.	.
.	.	on	.	.	.	.	.	.	.	.	.
.	.	the	.	.	.	.	.	.	.	.	.
=49	=49	=49	=49	=49	=49	=49	=49	=49	=49	=49	=49
1IVb	C:maj/3	big	.	.	.	.	.	.	.	voice	1c 1E 1g
.	.	beat	.	.	.	.	.	.	.	.	.
.	.	_	.	.	.	.	.	.	.	.	.
.	.	that	.	.	.	.	.	.	.	.	.
.	.	life-	.	.	.	.	.	.	.	.	.
.	.	-long	.	.	.	.	.	.	.	.	.
.	.	_	.	.	.	.	.	.	.	.	.
.	.	ro-	.	.	.	.	.	.	.	.	.
=50	=50	=50	=50	=50	=50	=50	=50	=50	=50	=50	=50
1-VII	F:maj	-mance	.	.	.	.	(E	.	.	voice	1F 1a 1cc
.	.	is	.	.	.	.	e)	.	.	.	.
.	.	_	.	.	.	.	.	.	.	.	.
.	.	.	.	.	.	.	.	.	.	.	.
.	.	You've	.	.	.	.	.	.	.	.	.
.	.	got	.	.	.	.	.	.	.	.	.
.	.	a	.	.	.	.	.	.	.	.	.
=51	=51	=51	=51	=51	=51	=51	=51	=51	=51	=51	=51
1I	G:maj	gun	.	.	.	.	.	131.13	newline	voice	1G 1b 1dd
.	.	in	.	.	.	.	.	.	.	.	.
.	.	your	.	.	.	.	.	.	.	.	.
.	.	hand!	.	.	.	.	G	.	.	.	.
.	.	.	.	.	.	.	.	.	.	.	.
.	.	You're	.	.	.	.	.	.	.	.	.
=52	=52	=52	=52	=52	=52	=52	=52	=52	=52	=52	=52
1Im7d	G:7/b7	mak-	.	.	.	.	.	.	.	voice	1g 1b 1dd 1F#
.	.	-ing	.	.	.	.	.	.	.	.	.
.	.	big	.	.	.	.	.	.	.	.	.
.	.	plans!	.	.	.	.	G	.	.	.	.
.	.	.	.	.	.	.	.	.	.	.	.
=53	=53	=53	=53	=53	=53	=53	=53	=53	=53	=53	=53
1IVb	C:maj/3	Stay	.	.	.	.	.	.	.	voice	1c 1E 1g
.	.	with	.	.	.	.	.	.	.	.	.
.	.	me	.	.	.	.	C	.	.	.	.
.	.	_	.	.	.	.	.	.	.	.	.
.	.	_	.	.	.	.	.	.	.	.	.
.	.	_	.	.	.	.	.	.	.	.	.
.	.	_	.	.	.	.	.	.	.	.	.
.	.	through	.	.	.	.	.	.	.	.	.
.	.	the!	.	.	.	.	.	.	.	.	.
.	.	_	.	.	.	.	.	.	.	.	.
.	.	_	.	.	.	.	.	.	.	.	.
=54	=54	=54	=54	=54	=54	=54	=54	=54	=54	=54	=54
1-VII	F:maj	_	.	.	.	.	.	.	.	voice	1F 1a 1cc
.	.	_	.	.	.	.	.	.	.	.	.
.	.	_	.	.	.	.	.	.	.	.	.
.	.	_	.	.	.	.	.	.	.	.	.
.	.	.	.	.	.	.	.	.	.	.	.
.	.	.	.	.	.	.	.	.	.	.	.
.	.	Con-	.	.	.	.	.	.	.	.	.
=55	=55	=55	=55	=55	=55	=55	=55	=55	=55	=55	=55
*>Letter>C	*>Letter>C	*>Letter>C	*>Letter>C	*>Letter>C	*>Letter>C	*>Letter>C	*>Letter>C	*>Letter>C	*>Letter>C	*>Letter>C	*>Letter>C
*>Label>Prechorus	*>Label>Prechorus	*>Label>Prechorus	*>Label>Prechorus	*>Label>Prechorus	*>Label>Prechorus	*>Label>Prechorus	*>Label>Prechorus	*>Label>Prechorus	*>Label>Prechorus	*>Label>Prechorus	*>Label>Prechorus
1-VI	E-:maj	-trol	.	.	.	.	.	138.655	newline	voice	1E- 1g 1b-
.	.	your-	.	.	.	.	.	.	.	.	.
.	.	_	.	.	.	.	.	.	.	.	.
.	.	-self,	.	.	.	.	.	.	.	.	.
.	.	_	.	.	.	.	.	.	.	.	.
=56	=56	=56	=56	=56	=56	=56	=56	=56	=56	=56	=56
1-VI	E-:maj	_	.	.	.	.	.	.	.	voice	1E- 1g 1b-
.	.	_	.	.	.	.	.	.	.	.	.
.	.	.	.	.	.	.	.	.	.	.	.
.	.	.	.	.	.	.	.	.	.	.	.
=57	=57	=57	=57	=57	=57	=57	=57	=57	=57	=57	=57
1-VII	F:maj	love	.	.	.	.	.	.	.	voice	1F 1a 1cc
.	.	is	.	.	.	.	.	.	.	.	.
.	.	_	.	.	.	.	.	.	.	.	.
.	.	all	.	.	.	.	.	.	.	.	.
.	.	_	.	.	.	.	.	.	.	.	.
.	.	you	.	.	.	.	.	.	.	.	.
.	.	_	.	.	.	.	.	.	.	.	.
.	.	need	.	.	.	.	C	.	.	.	.
.	.	_	.	.	.	.	.	.	.	.	.
=58	=58	=58	=58	=58	=58	=58	=58	=58	=58	=58	=58
1-VII	F:maj	_	.	.	.	.	.	.	.	voice	1F 1a 1cc
.	.	_	.	.	.	.	.	.	.	.	.
.	.	.	.	.	.	.	.	.	.	.	.
.	.	.	.	.	.	.	.	.	.	.	.
.	.	Con-	.	.	.	.	.	.	.	.	.
=59	=59	=59	=59	=59	=59	=59	=59	=59	=59	=59	=59
1-VI	E-:maj	-trol	.	.	.	.	.	146.135	newline	voice	1E- 1g 1b-
.	.	your	.	.	.	.	.	.	.	.	.
.	.	_	.	.	.	.	.	.	.	.	.
.	.	self,	.	.	.	.	.	.	.	.	.
.	.	_	.	.	.	.	.	.	.	.	.
=60	=60	=60	=60	=60	=60	=60	=60	=60	=60	=60	=60
1-VI	E-:maj	.	.	.	.	.	.	.	.	voice	1E- 1g 1b-
.	.	o-	.	.	.	.	.	.	.	.	.
.	.	-pen	.	.	.	.	.	.	.	.	.
.	.	up	.	.	.	.	.	.	.	.	.
.	.	your	.	.	.	.	.	.	.	.	.
.	.	_	.	.	.	.	.	.	.	.	.
.	.	_	.	.	.	.	.	.	.	.	.
.	.	heart!	.	.	.	.	.	.	.	.	.
=61	=61	=61	=61	=61	=61	=61	=61	=61	=61	=61	=61
*>Letter>D	*>Letter>D	*>Letter>D	*>Letter>D	*>Letter>D	*>Letter>D	*>Letter>D	*>Letter>D	*>Letter>D	*>Letter>D	*>Letter>D	*>Letter>D
*>Label>Chorus	*>Label>Chorus	*>Label>Chorus	*>Label>Chorus	*>Label>Chorus	*>Label>Chorus	*>Label>Chorus	*>Label>Chorus	*>Label>Chorus	*>Label>Chorus	*>Label>Chorus	*>Label>Chorus
1I	G:maj	_	.	.	.	.	.	149.84	newline	voice	1G 1b 1dd
.	.	.	.	.	.	.	.	.	.	.	.
.	.	.	.	.	.	.	.	.	.	.	.
.	.	.	.	.	.	.	.	.	.	.	.
.	.	Sanc-	.	.	.	.	.	.	.	.	.
.	.	-ti-	.	.	.	.	.	.	.	.	.
.	.	-fy	.	.	.	.	.	.	.	.	.
=62	=62	=62	=62	=62	=62	=62	=62	=62	=62	=62	=62
1IVc	C:maj/5	your-	.	.	.	.	.	.	.	voice	1c 1e 1G
.	.	-self,	.	.	.	.	.	.	.	.	.
.	.	.	.	.	.	.	.	.	.	.	.
.	.	.	.	.	.	.	.	.	.	.	.
.	.	sanc-	.	.	.	.	.	.	.	.	.
.	.	_	.	.	.	.	.	.	.	.	.
.	.	-ti-	.	.	.	.	.	.	.	.	.
=63	=63	=63	=63	=63	=63	=63	=63	=63	=63	=63	=63
1I	G:maj	-fy!	.	.	.	.	.	.	.	voice	1G 1b 1dd
.	.	.	Sanc-	.	.	.	.	.	.	.	.
.	.	.	-ti-	.	.	.	.	.	.	.	.
.	.	.	-fy!	.	.	.	.	.	.	.	.
.	.	.	_	.	.	.	.	.	.	.	.
.	.	Be	.	.	.	.	.	.	.	.	.
.	.	a	.	.	.	.	.	.	.	.	.
.	.	part	.	.	.	.	.	.	.	.	.
=64	=64	=64	=64	=64	=64	=64	=64	=64	=64	=64	=64
1IVc	C:maj/5	of	_	.	.	.	.	.	.	voice	1c 1e 1G
.	.	me,	.	.	.	.	C	.	.	.	.
.	.	.	.	.	.	.	.	.	.	.	.
.	.	.	.	.	.	.	.	.	.	.	.
.	.	sanc-	.	.	.	.	.	.	.	.	.
.	.	_	.	.	.	.	.	.	.	.	.
.	.	-ti-	.	.	.	.	.	.	.	.	.
=65	=65	=65	=65	=65	=65	=65	=65	=65	=65	=65	=65
1I	G:maj	-fy!	.	.	.	.	.	157.39	newline	voice	1G 1b 1dd
.	.	.	Sanc-	.	.	.	.	.	.	.	.
.	.	.	-ti-	.	.	.	.	.	.	.	.
.	.	.	-fy!	.	.	.	.	.	.	.	.
.	.	.	_	.	.	.	.	.	.	.	.
.	.	Sanc-	.	.	.	.	.	.	.	.	.
.	.	-ti-	.	.	.	.	.	.	.	.	.
.	.	-fy	.	.	.	.	.	.	.	.	.
=66	=66	=66	=66	=66	=66	=66	=66	=66	=66	=66	=66
1I	G:maj	your-	_	.	.	.	.	.	.	voice	1G 1b 1dd
.	.	-self,	.	.	.	.	.	.	.	.	.
.	.	.	.	.	.	.	.	.	.	.	.
.	.	.	.	.	.	.	.	.	.	.	.
.	.	sanc-	.	.	.	.	.	.	.	.	.
.	.	-ti-	.	.	.	.	.	.	.	.	.
.	.	-fy!	.	.	.	.	.	.	.	.	.
=67	=67	=67	=67	=67	=67	=67	=67	=67	=67	=67	=67
1I	G:maj	_	.	.	.	.	.	.	.	voice	1G 1b 1dd
.	.	.	Sanc-	.	.	.	.	.	.	.	.
.	.	_	-ti-	.	.	.	.	.	.	.	.
.	.	_	.	.	.	.	.	.	.	.	.
.	.	.	-fy!	.	.	.	.	.	.	.	.
.	.	.	_	.	.	.	.	.	.	.	.
.	.	Sanc-	.	.	.	.	.	.	.	.	.
.	.	-ti-	.	.	.	.	.	.	.	.	.
.	.	-fy	.	.	.	.	.	.	.	.	.
=68	=68	=68	=68	=68	=68	=68	=68	=68	=68	=68	=68
1I	G:maj	your	_	.	.	.	.	.	.	voice	1G 1b 1dd
.	.	self,	.	.	.	.	.	.	.	.	.
.	.	.	.	.	.	.	.	.	.	.	.
.	.	set	.	.	.	.	.	.	.	.	.
.	.	.	.	.	.	.	.	.	.	.	.
.	.	your-	.	.	.	.	.	.	.	.	.
.	.	-self	.	.	.	.	.	.	.	.	.
=69	=69	=69	=69	=69	=69	=69	=69	=69	=69	=69	=69
*>Letter>E	*>Letter>E	*>Letter>E	*>Letter>E	*>Letter>E	*>Letter>E	*>Letter>E	*>Letter>E	*>Letter>E	*>Letter>E	*>Letter>E	*>Letter>E
*>Label>Solo	*>Label>Solo	*>Label>Solo	*>Label>Solo	*>Label>Solo	*>Label>Solo	*>Label>Solo	*>Label>Solo	*>Label>Solo	*>Label>Solo	*>Label>Solo	*>Label>Solo
1i	G:min	free	.	.	.	.	C	164.9	newline	guitar	1G 1b- 1dd
.	.	_	.	.	.	.	.	.	.	.	.
.	.	.	.	.	.	.	.	.	.	.	.
.	.	.	.	.	.	.	.	.	.	.	.
=70	=70	=70	=70	=70	=70	=70	=70	=70	=70	=70	=70
1i	G:min	.	.	.	.	.	.	.	.	guitar	1G 1b- 1dd
=71	=71	=71	=71	=71	=71	=71	=71	=71	=71	=71	=71
1IV	C:maj	.	.	.	.	.	.	.	.	guitar	1C 1e 1g
=72	=72	=72	=72	=72	=72	=72	=72	=72	=72	=72	=72
1IV	C:maj	.	.	.	.	.	.	.	.	guitar	1C 1e 1g
=73	=73	=73	=73	=73	=73	=73	=73	=73	=73	=73	=73
1I	G:maj	.	.	.	.	.	.	179.88	newline	guitar	1G 1b 1dd
=74	=74	=74	=74	=74	=74	=74	=74	=74	=74	=74	=74
1I	G:maj	.	.	.	.	.	.	.	.	guitar	1G 1b 1dd
=75	=75	=75	=75	=75	=75	=75	=75	=75	=75	=75	=75
2.-III	B-:maj	.	.	.	.	.	.	.	.	guitar	1B- 1dd 1ff
4IV	C:maj	.	.	.	.	.	.	.	.	guitar	4C 4e 4g
=76	=76	=76	=76	=76	=76	=76	=76	=76	=76	=76	=76
1IV	C:maj	.	.	.	.	.	.	.	.	guitar	1C 1e 1g
.	.	.	.	.	.	.	.	.	.	.	.
.	.	.	.	.	.	.	.	.	.	.	.
.	.	You	.	.	.	.	.	.	.	.	.
=77	=77	=77	=77	=77	=77	=77	=77	=77	=77	=77	=77
*>Letter>B	*>Letter>B	*>Letter>B	*>Letter>B	*>Letter>B	*>Letter>B	*>Letter>B	*>Letter>B	*>Letter>B	*>Letter>B	*>Letter>B	*>Letter>B
*>Label>Verse	*>Label>Verse	*>Label>Verse	*>Label>Verse	*>Label>Verse	*>Label>Verse	*>Label>Verse	*>Label>Verse	*>Label>Verse	*>Label>Verse	*>Label>Verse	*>Label>Verse
1I	G:maj	can't	.	.	.	.	.	194.875	newline	voice	1G 1b 1dd
.	.	stop	.	.	.	.	.	.	.	.	.
.	.	_	.	.	.	.	.	.	.	.	.
.	.	the	.	.	.	.	.	.	.	.	.
.	.	world	.	.	.	.	H	.	.	.	.
.	.	_	.	.	.	.	.	.	.	.	.
.	.	for	.	.	.	.	.	.	.	.	.
.	.	a	.	.	.	.	.	.	.	.	.
.	.	boy	.	.	.	.	.	.	.	.	.
=78	=78	=78	=78	=78	=78	=78	=78	=78	=78	=78	=78
1Im7d	G:7/b7	_	.	.	.	.	.	.	.	voice	1g 1b 1dd 1F#
.	.	or	.	.	.	.	.	.	.	.	.
.	.	a	.	.	.	.	.	.	.	.	.
.	.	girl,	.	.	.	.	H	.	.	.	.
.	.	_	.	.	.	.	.	.	.	.	.
.	.	sweet	.	.	.	.	.	.	.	.	.
.	.	_	.	.	.	.	.	.	.	.	.
.	.	vic-	.	.	.	.	.	.	.	.	.
=79	=79	=79	=79	=79	=79	=79	=79	=79	=79	=79	=79
1IVb	C:maj/3	_	.	.	.	.	.	.	.	voice	1c 1E 1g
.	.	-tims	.	.	.	.	.	.	.	.	.
.	.	of	.	.	.	.	.	.	.	.	.
.	.	poor	.	.	.	.	.	.	.	.	.
.	.	_	.	.	.	.	.	.	.	.	.
.	.	cir-	.	.	.	.	.	.	.	.	.
.	.	-cum-	.	.	.	.	.	.	.	.	.
.	.	-stan-	.	.	.	.	(E	.	.	.	.
=80	=80	=80	=80	=80	=80	=80	=80	=80	=80	=80	=80
1-VII	F:maj	_	.	.	.	.	.	.	.	voice	1F 1a 1cc
.	.	-ces	.	.	.	.	e)	.	.	.	.
.	.	_	.	.	.	.	.	.	.	.	.
.	.	.	.	.	.	.	.	.	.	.	.
.	.	But	.	.	.	.	.	.	.	.	.
.	.	you	.	.	.	.	.	.	.	.	.
.	.	can	.	.	.	.	.	.	.	.	.
=81	=81	=81	=81	=81	=81	=81	=81	=81	=81	=81	=81
1I	G:maj	pour	.	.	.	.	.	202.365	newline	voice	1G 1b 1dd
.	.	back	.	.	.	.	.	.	.	.	.
.	.	the	.	.	.	.	(i	.	.	.	.
.	.	love,	.	.	.	.	I)	.	.	.	.
.	.	_	.	.	.	.	.	.	.	.	.
.	.	swee-	.	.	.	.	.	.	.	.	.
.	.	-ping	.	.	.	.	.	.	.	.	.
.	.	down	.	.	.	.	.	.	.	.	.
=82	=82	=82	=82	=82	=82	=82	=82	=82	=82	=82	=82
1Im7d	G:7/b7	_	.	.	.	.	.	.	.	voice	1g 1b 1dd 1F#
.	.	from	.	.	.	.	.	.	.	.	.
.	.	a-	.	.	.	.	(i	.	.	.	.
.	.	-bove,	.	.	.	.	I)	.	.	.	.
.	.	_	.	.	.	.	.	.	.	.	.
.	.	gi-	.	.	.	.	.	.	.	.	.
.	.	-ving	.	.	.	.	.	.	.	.	.
.	.	hope	.	.	.	.	.	.	.	.	.
=83	=83	=83	=83	=83	=83	=83	=83	=83	=83	=83	=83
1IVb	C:maj/3	_	.	.	.	.	.	.	.	voice	1c 1E 1g
.	.	and	.	.	.	.	.	.	.	.	.
.	.	ma-	.	.	.	.	.	.	.	.	.
.	.	_	.	.	.	.	.	.	.	.	.
.	.	-king	.	.	.	.	.	.	.	.	.
.	.	more	.	.	.	.	.	.	.	.	.
.	.	chan-	.	.	.	.	(E	.	.	.	.
=84	=84	=84	=84	=84	=84	=84	=84	=84	=84	=84	=84
1-VII	F:maj	.	.	.	.	.	.	.	.	voice	1F 1a 1cc
.	.	-ces	.	.	.	.	e)	.	.	.	.
.	.	_	.	.	.	.	.	.	.	.	.
.	.	.	.	.	.	.	.	.	.	.	.
.	.	Well,	.	.	.	.	.	.	.	.	.
.	.	I	.	.	.	.	.	.	.	.	.
.	.	hope	.	.	.	.	.	.	.	.	.
=85	=85	=85	=85	=85	=85	=85	=85	=85	=85	=85	=85
1I	G:maj	_	.	.	.	.	.	209.86	newline	voice	1G 1b 1dd
.	.	and	.	.	.	.	.	.	.	.	.
.	.	I	.	.	.	.	.	.	.	.	.
.	.	pray	.	.	.	.	J	.	.	.	.
.	.	_	.	.	.	.	.	.	.	.	.
.	.	that	.	.	.	.	.	.	.	.	.
.	.	_	.	.	.	.	.	.	.	.	.
.	.	may-	.	.	.	.	.	.	.	.	.
=86	=86	=86	=86	=86	=86	=86	=86	=86	=86	=86	=86
1Im7d	G:7/b7	_	.	.	.	.	.	.	.	voice	1g 1b 1dd 1F#
.	.	-be	.	.	.	.	.	.	.	.	.
.	.	some-	.	.	.	.	.	.	.	.	.
.	.	-day,	.	.	.	.	J	.	.	.	.
.	.	.	.	.	.	.	.	.	.	.	.
.	.	you'll	.	.	.	.	.	.	.	.	.
=87	=87	=87	=87	=87	=87	=87	=87	=87	=87	=87	=87
1IVb	C:maj/3	come	.	.	.	.	.	.	.	voice	1c 1E 1g
.	.	back	.	.	.	.	.	.	.	.	.
.	.	down	.	.	.	.	.	.	.	.	.
.	.	here	.	.	.	.	.	.	.	.	.
.	.	and	.	.	.	.	.	.	.	.	.
.	.	.	.	.	.	.	.	.	.	.	.
=88	=88	=88	=88	=88	=88	=88	=88	=88	=88	=88	=88
1-VII	F:maj	show	.	.	.	.	.	.	.	voice	1F 1a 1cc
.	.	me	.	.	.	.	.	.	.	.	.
.	.	the	.	.	.	.	.	.	.	.	.
.	.	way!	.	.	.	.	J	.	.	.	.
.	.	_	.	.	.	.	.	.	.	.	.
.	.	_	.	.	.	.	.	.	.	.	.
.	.	Con-	.	.	.	.	.	.	.	.	.
=89	=89	=89	=89	=89	=89	=89	=89	=89	=89	=89	=89
*>Letter>C	*>Letter>C	*>Letter>C	*>Letter>C	*>Letter>C	*>Letter>C	*>Letter>C	*>Letter>C	*>Letter>C	*>Letter>C	*>Letter>C	*>Letter>C
*>Label>Prechorus	*>Label>Prechorus	*>Label>Prechorus	*>Label>Prechorus	*>Label>Prechorus	*>Label>Prechorus	*>Label>Prechorus	*>Label>Prechorus	*>Label>Prechorus	*>Label>Prechorus	*>Label>Prechorus	*>Label>Prechorus
1-VI	E-:maj	-trol	.	.	.	.	.	217.335	newline	voice	1E- 1g 1b-
.	.	your-	.	.	.	.	.	.	.	.	.
.	.	_	.	.	.	.	.	.	.	.	.
.	.	-self,	.	.	.	.	.	.	.	.	.
.	.	_	.	.	.	.	.	.	.	.	.
=90	=90	=90	=90	=90	=90	=90	=90	=90	=90	=90	=90
1-VI	E-:maj	.	.	.	.	.	.	.	.	voice	1E- 1g 1b-
=91	=91	=91	=91	=91	=91	=91	=91	=91	=91	=91	=91
1-VII	F:maj	love	.	.	.	.	.	.	.	voice	1F 1a 1cc
.	.	is	.	.	.	.	.	.	.	.	.
.	.	_	.	.	.	.	.	.	.	.	.
.	.	all	.	.	.	.	.	.	.	.	.
.	.	_	.	.	.	.	.	.	.	.	.
.	.	you	.	.	.	.	.	.	.	.	.
.	.	_	.	.	.	.	.	.	.	.	.
.	.	need	.	.	.	.	C	.	.	.	.
.	.	_	.	.	.	.	.	.	.	.	.
=92	=92	=92	=92	=92	=92	=92	=92	=92	=92	=92	=92
1-VII	F:maj	_	.	.	.	.	.	.	.	voice	1F 1a 1cc
.	.	_	.	.	.	.	.	.	.	.	.
.	.	.	.	.	.	.	.	.	.	.	.
.	.	.	.	.	.	.	.	.	.	.	.
.	.	Con-	.	.	.	.	.	.	.	.	.
=93	=93	=93	=93	=93	=93	=93	=93	=93	=93	=93	=93
1-VI	E-:maj	-trol	.	.	.	.	.	224.855	newline	voice	1E- 1g 1b-
.	.	your-	.	.	.	.	.	.	.	.	.
.	.	_	.	.	.	.	.	.	.	.	.
.	.	-self,	.	.	.	.	.	.	.	.	.
.	.	_	.	.	.	.	.	.	.	.	.
.	.	.	.	.	.	.	.	.	.	.	.
=94	=94	=94	=94	=94	=94	=94	=94	=94	=94	=94	=94
1-VI	E-:maj	.	.	.	.	.	.	.	.	voice	1E- 1g 1b-
.	.	o-	.	.	.	.	.	.	.	.	.
.	.	-pen	.	.	.	.	.	.	.	.	.
.	.	up	.	.	.	.	.	.	.	.	.
.	.	_	.	.	.	.	.	.	.	.	.
.	.	your	.	.	.	.	.	.	.	.	.
.	.	_	.	.	.	.	.	.	.	.	.
.	.	heart!	.	.	.	.	.	.	.	.	.
=95	=95	=95	=95	=95	=95	=95	=95	=95	=95	=95	=95
*>Letter>D	*>Letter>D	*>Letter>D	*>Letter>D	*>Letter>D	*>Letter>D	*>Letter>D	*>Letter>D	*>Letter>D	*>Letter>D	*>Letter>D	*>Letter>D
*>Label>Chorus	*>Label>Chorus	*>Label>Chorus	*>Label>Chorus	*>Label>Chorus	*>Label>Chorus	*>Label>Chorus	*>Label>Chorus	*>Label>Chorus	*>Label>Chorus	*>Label>Chorus	*>Label>Chorus
1I	G:maj	_	.	.	.	.	.	228.61	newline	voice	1G 1b 1dd
.	.	.	.	.	.	.	.	.	.	.	.
.	.	.	.	.	.	.	.	.	.	.	.
.	.	.	.	.	.	.	.	.	.	.	.
.	.	Sanc-	.	.	.	.	.	.	.	.	.
.	.	-ti-	.	.	.	.	.	.	.	.	.
.	.	-fy	.	.	.	.	.	.	.	.	.
=96	=96	=96	=96	=96	=96	=96	=96	=96	=96	=96	=96
1IVc	C:maj/5	your-	.	.	.	.	.	.	.	voice	1c 1e 1G
.	.	-self,	.	.	.	.	.	.	.	.	.
.	.	.	.	.	.	.	.	.	.	.	.
.	.	.	.	.	.	.	.	.	.	.	.
.	.	sanc-	.	.	.	.	.	.	.	.	.
.	.	_	.	.	.	.	.	.	.	.	.
.	.	-ti-	.	.	.	.	.	.	.	.	.
=97	=97	=97	=97	=97	=97	=97	=97	=97	=97	=97	=97
1I	G:maj	-fy!	.	.	.	.	.	.	.	voice	1G 1b 1dd
.	.	.	Sanc-	.	.	.	.	.	.	.	.
.	.	.	-ti-	.	.	.	.	.	.	.	.
.	.	.	-fy!	.	.	.	.	.	.	.	.
.	.	.	_	.	.	.	.	.	.	.	.
.	.	Sanc-	.	.	.	.	.	.	.	.	.
.	.	-ti-	.	.	.	.	.	.	.	.	.
.	.	-fy	.	.	.	.	.	.	.	.	.
=98	=98	=98	=98	=98	=98	=98	=98	=98	=98	=98	=98
1IVc	C:maj/5	your-	_	.	.	.	.	.	.	voice	1c 1e 1G
.	.	-self,	.	.	.	.	.	.	.	.	.
.	.	.	.	.	.	.	.	.	.	.	.
.	.	.	.	.	.	.	.	.	.	.	.
.	.	sanc-	.	.	.	.	.	.	.	.	.
.	.	_	.	.	.	.	.	.	.	.	.
.	.	-ti-	.	.	.	.	.	.	.	.	.
=99	=99	=99	=99	=99	=99	=99	=99	=99	=99	=99	=99
1I	G:maj	-fy!	.	.	.	.	.	243.615	newline	voice	1G 1b 1dd
.	.	.	Sanc-	.	.	.	.	.	.	.	.
.	.	.	-ti-	.	.	.	.	.	.	.	.
.	.	.	-fy!	.	.	.	.	.	.	.	.
.	.	.	_	.	.	.	.	.	.	.	.
.	.	Sanc-	.	.	.	.	.	.	.	.	.
.	.	-ti-	.	.	.	.	.	.	.	.	.
.	.	-fy	.	.	.	.	.	.	.	.	.
=100	=100	=100	=100	=100	=100	=100	=100	=100	=100	=100	=100
1IVc	C:maj/5	your-	_	.	.	.	.	.	.	voice	1c 1e 1G
.	.	-self,	.	.	.	.	.	.	.	.	.
.	.	.	.	.	.	.	.	.	.	.	.
.	.	.	.	.	.	.	.	.	.	.	.
.	.	sanc-	.	.	.	.	.	.	.	.	.
.	.	_	.	.	.	.	.	.	.	.	.
.	.	-ti-	.	.	.	.	.	.	.	.	.
=101	=101	=101	=101	=101	=101	=101	=101	=101	=101	=101	=101
1I	G:maj	-fy!	.	.	.	.	.	.	.	voice	1G 1b 1dd
.	.	.	Sanc-	.	.	.	.	.	.	.	.
.	.	.	-ti-	.	.	.	.	.	.	.	.
.	.	.	-fy!	.	.	.	.	.	.	.	.
.	.	.	_	.	.	.	.	.	.	.	.
.	.	Sanc-	.	.	.	.	.	.	.	.	.
.	.	-ti-	.	.	.	.	.	.	.	.	.
.	.	-fy	.	.	.	.	.	.	.	.	.
=102	=102	=102	=102	=102	=102	=102	=102	=102	=102	=102	=102
1IVc	C:maj/5	your-	_	.	.	.	.	.	.	voice	1c 1e 1G
.	.	-self,	.	.	.	.	.	.	.	.	.
.	.	.	.	.	.	.	.	.	.	.	.
.	.	set	.	.	.	.	.	.	.	.	.
.	.	.	.	.	.	.	.	.	.	.	.
.	.	your-	.	.	.	.	.	.	.	.	.
.	.	-self	.	.	.	.	.	.	.	.	.
=103	=103	=103	=103	=103	=103	=103	=103	=103	=103	=103	=103
*>Letter>D	*>Letter>D	*>Letter>D	*>Letter>D	*>Letter>D	*>Letter>D	*>Letter>D	*>Letter>D	*>Letter>D	*>Letter>D	*>Letter>D	*>Letter>D
*>Label>Chorus	*>Label>Chorus	*>Label>Chorus	*>Label>Chorus	*>Label>Chorus	*>Label>Chorus	*>Label>Chorus	*>Label>Chorus	*>Label>Chorus	*>Label>Chorus	*>Label>Chorus	*>Label>Chorus
1I	G:maj	free,	.	.	.	.	C	258.58	newline	voice	1G 1b 1dd
.	.	.	Sanc-	.	.	.	.	.	.	.	.
.	.	.	-ti-	.	.	.	.	.	.	.	.
.	.	.	-fy!	.	.	.	.	.	.	.	.
.	.	.	_	.	.	.	.	.	.	.	.
=104	=104	=104	=104	=104	=104	=104	=104	=104	=104	=104	=104
1IVc	C:maj/5	_	_	.	.	.	.	.	.	voice	1c 1e 1G
=105	=105	=105	=105	=105	=105	=105	=105	=105	=105	=105	=105
1I	G:maj	_	.	.	.	.	.	.	.	voice	1G 1b 1dd
.	.	.	Sanc-	.	.	.	.	.	.	.	.
.	.	.	-ti-	.	.	.	.	.	.	.	.
.	.	.	-fy!	.	.	.	.	.	.	.	.
.	.	.	_	.	.	.	.	.	.	.	.
.	.	_	.	.	.	.	.	.	.	.	.
.	.	yeah!	.	.	.	.	.	.	.	.	.
=106	=106	=106	=106	=106	=106	=106	=106	=106	=106	=106	=106
1IVc	C:maj/5	_	_	.	.	.	.	.	.	voice	1c 1e 1G
.	.	_	.	.	.	.	.	.	.	.	.
.	.	_	.	.	.	.	.	.	.	.	.
.	.	.	.	.	.	.	.	.	.	.	.
.	.	Ooh,	.	.	.	.	.	.	.	.	.
.	.	whoa!	.	.	.	.	.	.	.	.	.
.	.	_	.	.	.	.	.	.	.	.	.
=107	=107	=107	=107	=107	=107	=107	=107	=107	=107	=107	=107
1I	G:maj	_	.	.	.	.	.	266.095	newline	voice	1G 1b 1dd
.	.	.	Sanc-	.	.	.	.	.	.	.	.
.	.	.	-ti-	.	.	.	.	.	.	.	.
.	.	_	-fy!	.	.	.	.	.	.	.	.
.	.	_	_	.	.	.	.	.	.	.	.
=108	=108	=108	=108	=108	=108	=108	=108	=108	=108	=108	=108
1IVc	C:maj/5	_	_	.	.	.	.	.	.	voice	1c 1e 1G
.	.	.	.	.	.	.	.	.	.	.	.
.	.	.	.	.	.	.	.	.	.	.	.
.	.	.	.	Whoa!	.	.	.	.	.	.	.
.	.	.	.	_	.	.	.	.	.	.	.
.	.	.	.	_	.	.	.	.	.	.	.
=109	=109	=109	=109	=109	=109	=109	=109	=109	=109	=109	=109
1I	G:maj	.	.	_	.	.	.	.	.	voice	1G 1b 1dd
.	.	.	Sanc-	.	.	.	.	.	.	.	.
.	.	.	-ti-	.	.	.	.	.	.	.	.
.	.	.	-fy!	_	.	.	.	.	.	.	.
.	.	.	_	_	.	.	.	.	.	.	.
=110	=110	=110	=110	=110	=110	=110	=110	=110	=110	=110	=110
1IVc	C:maj/5	.	_	_	.	.	.	.	.	voice	1c 1e 1G
.	.	Mmm,	.	.	.	.	.	.	.	.	.
.	.	.	.	.	.	.	.	.	.	.	.
.	.	_	.	.	.	.	.	.	.	.	.
.	.	ooh	.	.	.	.	.	.	.	.	.
.	.	whoa!	.	.	.	.	.	.	.	.	.
.	.	_	.	.	.	.	.	.	.	.	.
=111	=111	=111	=111	=111	=111	=111	=111	=111	=111	=111	=111
*>Letter>D	*>Letter>D	*>Letter>D	*>Letter>D	*>Letter>D	*>Letter>D	*>Letter>D	*>Letter>D	*>Letter>D	*>Letter>D	*>Letter>D	*>Letter>D
*>Label>Outro	*>Label>Outro	*>Label>Outro	*>Label>Outro	*>Label>Outro	*>Label>Outro	*>Label>Outro	*>Label>Outro	*>Label>Outro	*>Label>Outro	*>Label>Outro	*>Label>Outro
1I	G:maj	_	.	.	.	.	.	277.27	newline	voice	1G 1b 1dd
.	.	.	Sanc-	Sanc-	.	.	.	.	.	.	.
.	.	.	-ti-	-ti-	.	.	.	.	.	.	.
.	.	_	-fy!	-fy,	.	.	.	.	.	.	.
.	.	_	_	_	.	.	.	.	.	.	.
.	.	.	.	yeah!	.	.	.	.	.	.	.
.	.	.	.	_	.	.	.	.	.	.	.
=112	=112	=112	=112	=112	=112	=112	=112	=112	=112	=112	=112
1IVc	C:maj/5	.	_	_	.	.	.	.	.	voice	1c 1e 1G
.	.	.	.	_	Sanc-	.	.	.	.	.	.
.	.	.	.	_	-ti-	.	.	.	.	.	.
.	.	.	.	.	-fy!	.	.	.	.	.	.
.	.	.	.	.	_	.	.	.	.	.	.
.	.	Sanc-	.	.	.	Ooh,	.	.	.	.	.
.	.	-ti-	.	.	.	whoa!	.	.	.	.	.
.	.	-fy	.	.	.	_	.	.	.	.	.
=113	=113	=113	=113	=113	=113	=113	=113	=113	=113	=113	=113
1I	G:maj	your	.	.	.	_	.	.	.	voice	1G 1b 1dd
.	.	self,	Sanc-	.	.	.	.	.	.	.	.
.	.	.	-ti-	.	.	.	.	.	.	.	.
.	.	.	-fy!	.	.	_	.	.	.	.	.
.	.	.	_	.	.	_	.	.	.	.	.
.	.	sanc-	.	Oh!	.	.	.	.	.	.	.
.	.	_	.	_	.	.	.	.	.	.	.
.	.	-ti-	.	_	.	.	.	.	.	.	.
=114	=114	=114	=114	=114	=114	=114	=114	=114	=114	=114	=114
1IVc	C:maj/5	-fy!	_	_	.	.	.	.	.	voice	1c 1e 1G
.	.	.	.	_	.	.	.	.	.	.	.
.	.	.	.	_	.	.	.	.	.	.	.
.	.	.	.	_	.	.	.	.	.	.	.
.	.	.	.	.	.	.	.	.	.	.	.
.	.	.	.	.	.	.	.	.	.	.	.
.	.	Sanc-	.	.	.	.	.	.	.	.	.
.	.	-ti-	.	.	Oh!	.	.	.	.	.	.
.	.	-fy!	.	.	.	.	.	.	.	.	.
=115	=115	=115	=115	=115	=115	=115	=115	=115	=115	=115	=115
1I	G:maj	.	.	.	_	.	.	284.815	newline	voice	1G 1b 1dd
.	.	.	Sanc-	.	.	.	.	.	.	.	.
.	.	.	-ti-	.	.	.	.	.	.	.	.
.	.	.	-fy!	.	.	.	.	.	.	.	.
.	.	.	_	.	.	.	.	.	.	.	.
.	.	Sanc-	.	.	.	.	.	.	.	.	.
.	.	-ti-	.	.	.	.	.	.	.	.	.
.	.	-fy	.	.	.	.	.	.	.	.	.
=116	=116	=116	=116	=116	=116	=116	=116	=116	=116	=116	=116
1IVc	C:maj/5	your-	_	.	_	.	.	.	.	voice	1c 1e 1G
.	.	-self!	.	.	.	.	.	.	.	.	.
.	.	.	.	.	.	.	.	.	.	.	.
.	.	Mmm,	.	.	.	.	.	.	.	.	.
.	.	_	.	.	.	.	.	.	.	.	.
.	.	now,	.	.	.	.	.	.	.	.	.
=117	=117	=117	=117	=117	=117	=117	=117	=117	=117	=117	=117
1I	G:maj	walk	.	.	_	.	.	.	.	voice	1G 1b 1dd
.	.	my	Sanc-	.	.	.	.	.	.	.	.
.	.	way!	-ti-	.	.	.	.	.	.	.	.
.	.	.	-fy!	.	.	.	.	.	.	.	.
.	.	.	_	.	.	.	.	.	.	.	.
.	.	.	.	.	.	.	.	.	.	.	.
=118	=118	=118	=118	=118	=118	=118	=118	=118	=118	=118	=118
1IVc	C:maj/5	.	_	.	.	.	.	.	.	voice	1c 1e 1G
.	.	Mmm,	.	.	.	.	.	.	.	.	.
.	.	_	.	.	.	.	.	.	.	.	.
.	.	.	.	.	Oh	.	.	.	.	.	.
=119	=119	=119	=119	=119	=119	=119	=119	=119	=119	=119	=119
1I	G:maj	walk	.	.	_	.	.	292.53	newline	fadeout	1G 1b 1dd
.	.	.	Sanc-	.	.	.	.	.	.	.	.
.	.	my	.	.	.	.	.	.	.	.	.
.	.	.	-ti-	.	.	.	.	.	.	.	.
.	.	way!	.	.	.	.	.	.	.	.	.
.	.	.	-fy!	Yeah!	.	.	.	.	.	.	.
.	.	_	.	.	.	.	.	.	.	.	.
.	.	_	_	_	.	.	.	.	.	.	.
.	.	.	.	_	.	.	.	.	.	.	.
.	.	.	.	_	.	.	.	.	.	.	.
.	.	.	.	_	.	.	.	.	.	.	.
.	.	.	.	_	.	.	.	.	.	.	.
=120	=120	=120	=120	=120	=120	=120	=120	=120	=120	=120	=120
1IVc	C:maj/5	.	_	_	_	.	.	.	.	fadeout	1c 1e 1G
.	.	.	.	_	.	.	.	.	.	.	.
.	.	.	.	.	.	.	.	.	.	.	.
.	.	Set	.	.	.	.	.	.	.	.	.
.	.	_	.	.	.	.	.	.	.	.	.
.	.	your-	.	.	.	.	.	.	.	.	.
.	.	-self...	.	.	.	.	.	.	.	.	.
=121	=121	=121	=121	=121	=121	=121	=121	=121	=121	=121	=121
1I	G:maj	.	.	.	_	.	.	.	.	fadeout	1G 1b 1dd
=122	=122	=122	=122	=122	=122	=122	=122	=122	=122	=122	=122
1IVc	C:maj/5	.	.	.	.	.	.	.	.	fadeout	1c 1e 1G
=123	=123	=123	=123	=123	=123	=123	=123	=123	=123	=123	=123
1I	G:maj	.	.	.	.	.	.	.	newline	fadeout	1G 1b 1dd
=124	=124	=124	=124	=124	=124	=124	=124	=124	=124	=124	=124
1IVc	C:maj/5	.	.	.	.	.	.	.	.	fadeout	1c 1e 1G
=125	=125	=125	=125	=125	=125	=125	=125	=125	=125	=125	=125
1I	G:maj	.	.	.	.	.	.	.	.	fadeout	1G 1b 1dd
=126	=126	=126	=126	=126	=126	=126	=126	=126	=126	=126	=126
1IVc	C:maj/5	.	.	.	.	.	.	.	.	fadeout	1c 1e 1G
1r;	N	.	.	.	.	.	.	.	.	r	1r;
*-	*-	*-	*-	*-	*-	*-	*-	*-	*-	*-	*-
!!!BillboardChartDate: 1986/03/22
!!!BillboardPeak: 14
!!!BillboardWeeksOnChart: 14
!!!COC: Simple Minds
!!!ENC: Nathaniel Condit-Schultz
!!!EST: Awating manual error checking and editing.
!!!OTL: Sanctify Yourself
!!!RDF**harte: Chris Harte's syntax, used by MIREX
!!!RDF**harmony: **recip + pitch class of root + harmonic quality
!!!RDF**leadinstrument: original McGill primary instrumentation annotation
!!!RDF**phrase: newline = linebreak in original McGill transcription
!!!RDF**timestamp: McGill audio timestamp in seconds
!!!RDT: 2017/01/12/
!!!SampleActualRank: 14
!!!SampleID#: 0254
!!!SampleTargetRank: 12
